X: 7801
T: Come To The Fair
R: polka
M: 2/4
K: Gmajor
|:B/c/B/A/ GD|GB ed|B/c/B/A/ GD|FA A2|
B/c/B/A/ GD|GB ed|B/c/B/A/ D/E/F/G/|1 {AB}AG GG/A/:|2 {AB}AG G>A||
|:Bd d>B|ce e2|df {g}f/e/f/g/|{ab}ag ed|
Bd d>B|ce e2|df {g}f/e/f/g/|1 {ab}ag g>A:|2 ag g2||

